build/assets/images/svg/food/11-krasnaya_ikra.svg

<svg width="28" height="28" viewBox="0 0 28 28" fill="none" xmlns="http://www.w3.org/2000/svg">
<path d="M1.03906 26.7363H26.8201M1.03906 9.57812H26.8201M2.08936 12.7363H25.7704M2.08936 23.4082H25.7704M2.04004 9.57812H25.805V26.7351H2.04004V9.57812Z" stroke="#203686" stroke-miterlimit="10" stroke-linecap="round"/>
<path d="M18.5846 16.1016C18.5846 16.1016 14.6086 20.1021 12.0256 20.1231C10.0551 20.1406 9.28516 19.2271 9.28516 18.1526C9.28516 17.0781 10.2826 16.2101 11.9241 16.2311C14.7731 16.2696 18.5846 20.0216 18.5846 20.0216" stroke="#203686" stroke-miterlimit="10" stroke-linecap="round"/>
<path d="M21.5539 4.34062C21.5084 4.34062 21.4629 4.34413 21.4174 4.34763C21.6379 3.94163 21.7638 3.47962 21.7638 2.98612C21.7638 1.41813 20.4863 0.140625 18.9183 0.140625C17.8088 0.140625 16.8463 0.781125 16.3773 1.71212C15.9083 0.781125 14.9459 0.140625 13.8364 0.140625C12.6779 0.140625 11.6803 0.837125 11.2358 1.83463C10.7913 0.837125 9.79385 0.140625 8.63535 0.140625C7.06735 0.140625 5.78984 1.41813 5.78984 2.98612C5.78984 3.47613 5.91586 3.93813 6.13286 4.34412C4.58586 4.37213 3.33984 5.63563 3.33984 7.18613C3.33984 8.75413 4.61735 10.0316 6.18535 10.0316C7.34385 10.0316 7.65535 9.98263 8.75435 9.31763C9.82185 9.72713 10.2279 10.0316 11.3864 10.0316C12.4959 10.0316 13.0839 9.99662 13.9589 9.23013C14.7954 9.85663 15.3553 10.0316 16.4683 10.0316C17.5813 10.0316 17.6479 9.98263 19.0129 9.38763C20.2169 9.96513 20.4444 10.0316 21.5539 10.0316C23.1219 10.0316 24.3994 8.75413 24.3994 7.18613C24.3994 5.61813 23.1219 4.34062 21.5539 4.34062ZM18.9183 1.05063C19.9858 1.05063 20.8539 1.91862 20.8539 2.98612C20.8539 4.05362 19.9858 4.92162 18.9183 4.92162C17.8508 4.92162 16.9829 4.05362 16.9829 2.98612C16.9829 1.91862 17.8508 1.05063 18.9183 1.05063ZM13.8329 1.05063C14.9004 1.05063 15.7683 1.91862 15.7683 2.98612C15.7683 4.05362 14.9004 4.92162 13.8329 4.92162C12.7654 4.92162 11.8973 4.05362 11.8973 2.98612C11.8973 1.91862 12.7654 1.05063 13.8329 1.05063ZM8.63184 1.05063C9.69934 1.05063 10.5674 1.91862 10.5674 2.98612C10.5674 4.05362 9.69934 4.92162 8.63184 4.92162C7.56434 4.92162 6.69635 4.05362 6.69635 2.98612C6.69635 1.91862 7.56434 1.05063 8.63184 1.05063ZM6.18184 9.12162C5.11434 9.12162 4.24635 8.25362 4.24635 7.18613C4.24635 6.11863 5.11434 5.25063 6.18184 5.25063C7.24934 5.25063 8.11735 6.11863 8.11735 7.18613C8.11735 8.25362 7.24934 9.12162 6.18184 9.12162ZM11.3829 9.12162C10.3154 9.12162 9.44735 8.25362 9.44735 7.18613C9.44735 6.11863 10.3154 5.25063 11.3829 5.25063C12.4504 5.25063 13.3183 6.11863 13.3183 7.18613C13.3183 8.25362 12.4539 9.12162 11.3829 9.12162ZM16.4683 9.12162C15.4008 9.12162 14.5329 8.25362 14.5329 7.18613C14.5329 6.11863 15.4008 5.25063 16.4683 5.25063C17.5358 5.25063 18.4039 6.11863 18.4039 7.18613C18.4039 8.25362 17.5358 9.12162 16.4683 9.12162ZM21.5539 9.12162C20.4864 9.12162 19.6183 8.25362 19.6183 7.18613C19.6183 6.11863 20.4864 5.25063 21.5539 5.25063C22.6214 5.25063 23.4893 6.11863 23.4893 7.18613C23.4893 8.25362 22.6214 9.12162 21.5539 9.12162Z" fill="#203686"/>
</svg>

<svg width="28" height="28" fill="none" xmlns="http://www.w3.org/2000/svg"><path d="M1.04 26.736h25.78M1.04 9.578h25.78M2.09 12.736h23.68M2.09 23.408h23.68M2.04 9.578h23.765v17.157H2.04V9.578z" stroke="#203686" stroke-miterlimit="10" stroke-linecap="round"/><path d="M18.585 16.102s-3.976 4-6.56 4.021c-1.97.018-2.74-.896-2.74-1.97 0-1.075.998-1.943 2.64-1.922 2.848.039 6.66 3.79 6.66 3.79" stroke="#203686" stroke-miterlimit="10" stroke-linecap="round"/><path d="M21.554 4.34c-.046 0-.091.004-.137.008a2.85 2.85 0 00-2.5-4.207c-1.108 0-2.07.64-2.54 1.571a2.847 2.847 0 00-2.54-1.571 2.85 2.85 0 00-2.601 1.694A2.85 2.85 0 008.636.14a2.85 2.85 0 00-2.503 4.203A2.845 2.845 0 003.34 7.186a2.85 2.85 0 002.845 2.846c1.159 0 1.47-.05 2.57-.714 1.067.41 1.473.714 2.631.714 1.11 0 1.698-.035 2.573-.802.836.627 1.396.802 2.51.802 1.112 0 1.179-.05 2.544-.644 1.204.577 1.431.644 2.54.644A2.85 2.85 0 0024.4 7.186a2.85 2.85 0 00-2.845-2.845zm-2.636-3.29c1.068 0 1.936.869 1.936 1.936a1.937 1.937 0 01-1.936 1.936 1.937 1.937 0 01-1.935-1.936c0-1.067.868-1.935 1.935-1.935zm-5.085 0c1.067 0 1.935.869 1.935 1.936a1.937 1.937 0 01-1.935 1.936 1.937 1.937 0 01-1.936-1.936c0-1.067.868-1.935 1.936-1.935zm-5.201 0c1.067 0 1.935.869 1.935 1.936a1.937 1.937 0 01-1.935 1.936 1.937 1.937 0 01-1.936-1.936c0-1.067.868-1.935 1.936-1.935zm-2.45 8.072a1.937 1.937 0 01-1.936-1.936c0-1.067.868-1.935 1.936-1.935 1.067 0 1.935.868 1.935 1.935a1.937 1.937 0 01-1.935 1.936zm5.2 0a1.937 1.937 0 01-1.935-1.936c0-1.067.868-1.935 1.936-1.935a1.935 1.935 0 110 3.871zm5.086 0a1.937 1.937 0 01-1.935-1.936c0-1.067.868-1.935 1.935-1.935 1.068 0 1.936.868 1.936 1.935a1.937 1.937 0 01-1.936 1.936zm5.086 0a1.937 1.937 0 01-1.936-1.936c0-1.067.868-1.935 1.936-1.935 1.067 0 1.935.868 1.935 1.935a1.937 1.937 0 01-1.935 1.936z" fill="#203686"/></svg>2C15.7683 4.05362 14.9004 4.92162 13.8329 4.92162C12.7654 4.92162 11.8973 4.05362 11.8973 2.98612C11.8973 1.91862 12.7654 1.05063 13.8329 1.05063ZM8.63184 1.05063C9.69934 1.05063 10.5674 1.91862 10.5674 2.98612C10.5674 4.05362 9.69934 4.92162 8.63184 4.92162C7.56434 4.92162 6.69635 4.05362 6.69635 2.98612C6.69635 1.91862 7.56434 1.05063 8.63184 1.05063ZM6.18184 9.12162C5.11434 9.12162 4.24635 8.25362 4.24635 7.18613C4.24635 6.11863 5.11434 5.25063 6.18184 5.25063C7.24934 5.25063 8.11735 6.11863 8.11735 7.18613C8.11735 8.25362 7.24934 9.12162 6.18184 9.12162ZM11.3829 9.12162C10.3154 9.12162 9.44735 8.25362 9.44735 7.18613C9.44735 6.11863 10.3154 5.25063 11.3829 5.25063C12.4504 5.25063 13.3183 6.11863 13.3183 7.18613C13.3183 8.25362 12.4539 9.12162 11.3829 9.12162ZM16.4683 9.12162C15.4008 9.12162 14.5329 8.25362 14.5329 7.18613C14.5329 6.11863 15.4008 5.25063 16.4683 5.25063C17.5358 5.25063 18.4039 6.11863 18.4039 7.18613C18.4039 8.25362 17.5358 9.12162 16.4683 9.12162ZM21.5539 9.12162C20.4864 9.12162 19.6183 8.25362 19.6183 7.18613C19.6183 6.11863 20.4864 5.25063 21.5539 5.25063C22.6214 5.25063 23.4893 6.11863 23.4893 7.18613C23.4893 8.25362 22.6214 9.12162 21.5539 9.12162Z" fill="#203686"/>
</svg>
